img/auth-ok.svg

<svg width="26" height="25" viewBox="0 0 26 25" fill="none" xmlns="http://www.w3.org/2000/svg">
<path d="M0.919922 12.48C0.919922 5.58749 6.50741 0 13.3999 0C20.2924 0 25.8799 5.58749 25.8799 12.48C25.8799 19.3725 20.2924 24.96 13.3999 24.96C6.50741 24.96 0.919922 19.3725 0.919922 12.48Z" fill="#F68634"/>
<path d="M14.7498 15.3089L16.6149 17.1094C16.9969 17.4775 16.9969 18.0752 16.6149 18.4436C16.2332 18.8121 15.6145 18.8121 15.2333 18.4436L13.3995 16.6743L11.5674 18.4436C11.3764 18.6277 11.126 18.7198 10.8757 18.7198C10.6258 18.7198 10.3759 18.6277 10.1848 18.4436C9.80315 18.0752 9.80315 17.4779 10.1844 17.1094L12.0497 15.3089C11.3706 15.1596 10.7156 14.8998 10.1124 14.5345C9.65583 14.2566 9.51869 13.6745 9.80635 13.2334C10.0932 12.7918 10.6965 12.6588 11.1538 12.9367C12.5196 13.766 14.2791 13.7662 15.6457 12.9367C16.103 12.6588 16.7061 12.7918 16.9935 13.2334C17.2812 13.6741 17.1437 14.2566 16.6871 14.5345C16.0839 14.9002 15.4289 15.1596 14.7498 15.3089Z" fill="white"/>
<path fill-rule="evenodd" clip-rule="evenodd" d="M10.0552 9.46065C10.0552 11.2361 11.5515 12.6804 13.3915 12.6804C15.2318 12.6804 16.7277 11.2361 16.7277 9.46065C16.7277 7.68461 15.2318 6.23999 13.3915 6.23999C11.5515 6.23999 10.0552 7.68461 10.0552 9.46065ZM14.7728 9.46065C14.7728 8.72534 14.1532 8.12741 13.3915 8.12741C12.6303 8.12741 12.0101 8.72534 12.0101 9.46065C12.0101 10.1954 12.6303 10.7937 13.3915 10.7937C14.1532 10.7937 14.7728 10.1954 14.7728 9.46065Z" fill="white"/>
</svg>

<svg width="26" height="25" fill="none" xmlns="http://www.w3.org/2000/svg"><path d="M.92 12.48C.92 5.587 6.507 0 13.4 0c6.892 0 12.48 5.587 12.48 12.48 0 6.892-5.588 12.48-12.48 12.48C6.507 24.96.92 19.372.92 12.48Z" fill="#F68634"/><path d="m14.75 15.309 1.865 1.8a.92.92 0 0 1 0 1.335c-.382.368-1 .368-1.382 0l-1.834-1.77-1.832 1.77a.994.994 0 0 1-.691.276c-.25 0-.5-.092-.691-.276a.92.92 0 0 1 0-1.335l1.865-1.8a6.386 6.386 0 0 1-1.938-.774.925.925 0 0 1-.306-1.302.997.997 0 0 1 1.348-.296 4.365 4.365 0 0 0 4.492 0 .997.997 0 0 1 1.348.296.925.925 0 0 1-.307 1.301 6.376 6.376 0 0 1-1.937.775Z" fill="#fff"/><path fill-rule="evenodd" clip-rule="evenodd" d="M10.055 9.46c0 1.776 1.497 3.22 3.337 3.22s3.336-1.444 3.336-3.22c0-1.775-1.496-3.22-3.337-3.22-1.84 0-3.336 1.445-3.336 3.22Zm4.718 0c0-.735-.62-1.333-1.381-1.333-.762 0-1.382.598-1.382 1.334 0 .734.62 1.333 1.382 1.333.761 0 1.38-.599 1.38-1.333Z" fill="#fff"/></svg>
